X: 24
T: Noon Song
C: Teton Sioux band 1911-1914
N: Derived from sioux024.krn
O: South Dakota, U.S.A.
N: Teton Sioux Music by Frances Densmore, 1918
Z: transcribed to **kern format by Craig Sapp
L: 1/8
M: 2/4
Q: 1/4=58
K: Ab clef=bass
%%linebreak <none>
E3/ E/ [I:setbarnb 1]| 
E4 | 
C E D/ C3/ | 
C2 ]|:  
C3/ C/ [I:setbarnb 4]| 
C4 | 
B,4 | 
B,< A, F, A,/ A,/ | 
A,> A,A,2 | 
F,4 | 
F,< E,C,2 ||  
[M:3/4]E,> F, F,< E,-E,2 ||  
[M:2/4]F,2F,/ E,3/ | 
C,< C,C,2 ||  
[M:3/4]C,6 | 
C,4 :|]  



